Numix/scalable/actions/object-straighten-symbolic.svg

<?xml version="1.0" encoding="UTF-8" standalone="no"?>
<svg
   xmlns:dc="http://purl.org/dc/elements/1.1/"
   xmlns:cc="http://creativecommons.org/ns#"
   xmlns:rdf="http://www.w3.org/1999/02/22-rdf-syntax-ns#"
   xmlns:svg="http://www.w3.org/2000/svg"
   xmlns="http://www.w3.org/2000/svg"
   xmlns:xlink="http://www.w3.org/1999/xlink"
   xmlns:sodipodi="http://sodipodi.sourceforge.net/DTD/sodipodi-0.dtd"
   xmlns:inkscape="http://www.inkscape.org/namespaces/inkscape"
   viewBox="0 0 16 16"
   id="svg2"
   version="1.1"
   inkscape:version="0.91 r"
   width="100%"
   height="100%"
   sodipodi:docname="object-straighten-symbolic.svg">
  <metadata
     id="metadata12">
    <rdf:RDF>
      <cc:Work
         rdf:about="">
        <dc:format>image/svg+xml</dc:format>
        <dc:type
           rdf:resource="http://purl.org/dc/dcmitype/StillImage" />
        <dc:title />
      </cc:Work>
    </rdf:RDF>
  </metadata>
  <defs
     id="defs10" />
  <sodipodi:namedview
     pagecolor="#ffffff"
     bordercolor="#666666"
     borderopacity="1"
     objecttolerance="10"
     gridtolerance="10"
     guidetolerance="10"
     inkscape:pageopacity="0"
     inkscape:pageshadow="2"
     inkscape:window-width="1920"
     inkscape:window-height="1056"
     id="namedview8"
     showgrid="true"
     inkscape:zoom="22.627417"
     inkscape:cx="-3.4991411"
     inkscape:cy="8.3309441"
     inkscape:window-x="0"
     inkscape:window-y="24"
     inkscape:window-maximized="1"
     inkscape:current-layer="svg2">
    <inkscape:grid
       type="xygrid"
       id="grid3758" />
  </sodipodi:namedview>
  <use
     height="100%"
     width="100%"
     y="0"
     x="0"
     style="fill:#bebebe;stroke:#af8566;stroke-width:2.48275852;stroke-linecap:butt;stroke-linejoin:miter;stroke-miterlimit:4;stroke-dasharray:none;stroke-opacity:1;fill-opacity:1"
     id="use72"
     xlink:href="#SVGCleanerId_0"
     stroke-miterlimit="4"
     transform="matrix(0.43939393,0,0,0.43939393,-2.5454547,-2.5454543)" />
  <use
     height="100%"
     width="100%"
     y="0"
     x="0"
     style="fill:#bebebe;fill-opacity:1;fill-rule:nonzero;stroke:none"
     id="use74"
     xlink:href="#SVGCleanerId_0"
     transform="matrix(0.42424241,0,0,0.42424241,-2.1818182,-2.1818178)" />
  <use
     height="100%"
     width="100%"
     y="0"
     x="0"
     style="fill:#bebebe;stroke:#af8566;stroke-width:2.48275852;stroke-linecap:butt;stroke-linejoin:miter;stroke-miterlimit:4;stroke-dasharray:none;stroke-opacity:1;fill-opacity:1"
     id="use72-6"
     xlink:href="#SVGCleanerId_0"
     stroke-miterlimit="4"
     transform="matrix(0.43939393,0,0,0.43939393,-2.5454547,-2.5454543)" />
  <use
     height="100%"
     width="100%"
     y="0"
     x="0"
     style="fill:#bebebe;fill-opacity:1;fill-rule:nonzero;stroke:none"
     id="use74-8"
     xlink:href="#SVGCleanerId_0"
     transform="matrix(0.42424241,0,0,0.42424241,-2.1818182,-2.1818178)" />
  <path
     style="opacity:1;fill:#bebebe;fill-opacity:1;stroke:none"
     d="M 3.5273438 0.50390625 C 2.7326659 0.55261928 2.0586555 1.1503283 1.9433594 1.9707031 L 1.3769531 6 L 15.183594 6 L 15.482422 3.875 C 15.614189 2.9374288 14.966868 2.0751264 14.029297 1.9433594 L 3.875 0.51757812 C 3.7578036 0.50110724 3.6408692 0.49694725 3.5273438 0.50390625 z M 0.81640625 10 L 0.51757812 12.125 C 0.38581108 13.062571 1.0331319 13.924874 1.9707031 14.056641 L 12.125 15.482422 C 13.062571 15.614189 13.924874 14.966868 14.056641 14.029297 L 14.623047 10 L 0.81640625 10 z "
     id="rect4151" />
  <rect
     style="opacity:1;fill:#bebebe;fill-opacity:1;stroke:none"
     id="rect4195"
     width="2.9090908"
     height="2"
     x="3.2710538e-08"
     y="7"
     ry="0.75"
     rx="0.75" />
  <rect
     y="7"
     x="4.363636"
     height="2"
     width="2.9090908"
     id="rect4197"
     style="opacity:1;fill:#bebebe;fill-opacity:1;stroke:none"
     ry="0.75"
     rx="0.75" />
  <rect
     style="opacity:1;fill:#bebebe;fill-opacity:1;stroke:none"
     id="rect4199"
     width="2.9090908"
     height="2"
     x="8.727273"
     y="7"
     ry="0.75"
     rx="0.75" />
  <rect
     y="7"
     x="13.090909"
     height="2"
     width="2.9090908"
     id="rect4201"
     style="opacity:1;fill:#bebebe;fill-opacity:1;stroke:none"
     ry="0.75"
     rx="0.75" />
</svg>

<svg xmlns="http://www.w3.org/2000/svg" viewBox="0 0 16 16">
 <path d="m 3.527 0.504 c -0.795 0.049 -1.469 0.646 -1.584 1.467 l -0.566 4.03 l 13.807 0 l 0.299 -2.125 c 0.132 -0.938 -0.516 -1.8 -1.453 -1.932 l -10.154 -1.426 c -0.117 -0.016 -0.234 -0.021 -0.348 -0.014 z m -2.711 9.496 l -0.299 2.125 c -0.132 0.938 0.516 1.8 1.453 1.932 l 10.154 1.426 c 0.938 0.132 1.8 -0.516 1.932 -1.453 l 0.566 -4.03 l -13.807 0 z" style="fill:#bebebe;opacity:1;fill-opacity:1;stroke:none"/>
 <rect width="2.909" height="2" y="7" rx="0.75" style="fill:#bebebe;opacity:1;fill-opacity:1;stroke:none"/>
 <rect y="7" x="4.364" height="2" width="2.909" rx="0.75" style="fill:#bebebe;opacity:1;fill-opacity:1;stroke:none"/>
 <rect width="2.909" height="2" x="8.727" y="7" rx="0.75" style="fill:#bebebe;opacity:1;fill-opacity:1;stroke:none"/>
 <rect y="7" x="13.09" height="2" width="2.909" rx="0.75" style="fill:#bebebe;opacity:1;fill-opacity:1;stroke:none"/>
</svg>
